X:505
T:Reel 505
M:4/4
K:Gmaj
L:1/8
e>A (3AAA g2fg|e>A (3AAA egfg|e>A (3AAA g2fg||afge dgfg:||2afge fgag|faaf edgd|eAAg fddf|eaaf gbag|edef gfgf|efgf edBd|eaaf gbaf|eged gbaf|edef gbaf|edef gbaf|edec dBAd|fgaf g2ag|fgef gddg|fgab c'bag|fdec Addc|eggf gbag|fdef gedB|c2ec g2eg|adeg edeg|
